svgs/sharp-solid/vent-damper.svg

<svg xmlns="http://www.w3.org/2000/svg" viewBox="0 0 640 512"><!--! Font Awesome Pro 6.6.0 by @fontawesome - https://fontawesome.com License - https://fontawesome.com/license (Commercial License) Copyright 2024 Fonticons, Inc. --><path d="M64 64l512 0 0 96 64 0 0 192-64 0 0 96L64 448l0-96L0 352 0 160l64 0 0-96zm120 80l-24 0 0 48 24 0 272 0 24 0 0-48-24 0-272 0zm0 88l-24 0 0 48 24 0 272 0 24 0 0-48-24 0-272 0zm0 88l-24 0 0 48 24 0 272 0 24 0 0-48-24 0-272 0z"/></svg>

<svg xmlns="http://www.w3.org/2000/svg" viewBox="0 0 640 512"><!--! Font Awesome Pro 6.4.2 by @fontawesome - https://fontawesome.com License - https://fontawesome.com/license (Commercial License) Copyright 2023 Fonticons, Inc. --><path d="M64 64H576v96h64V352H576v96H64V352H0V160H64V64zm120 80H160v48h24H456h24V144H456 184zm0 88H160v48h24H456h24V232H456 184zm0 88H160v48h24H456h24V320H456 184z"/></svg>
